X:1
T:James Gibb editions
T:Sun of my soul, Thou Saviour dear - Barnby
%%score [ ( 1 2 ) ( 3 4 ) ]
L:1/8
Q:1/4=75
M:3/4
K:Eb
V:1 treble nm="Midi_74"
V:2 treble 
V:3 bass nm="Midi_74"
V:4 bass 
V:1
"^Sun of my soul, Thou Saviour dear""^L.M.""^Joseph Barnby\n(1838-96)""^John Keble\n(1792-1866)" G2 G2 G2 | %1
 B4 B2 | e4 c2 | B6 || B2 G2 F2 | E4 E2 | c4 A2 | F6 ||[M:3/4] B2 A2 G2 | A4 A2 | (_d2 c2) B2 | %11
 c4 || c2 | d4 G2 | e4 E2 | G4 F2 | E6 || E6 | E6 |] %19
V:2
 E2 E2 G2 | F4 G2 | A4 E2 | E6 || E2 E2 D2 | E4 _D2 | C4 F2 | D6 ||[M:3/4] E2 =E2 E2 | F4 F2 | %10
 (F2 _E2) _D2 | C4 || E2 | (A2"^1" G2) F2 | (E2 F2) E2 | E4 D2 | E6 || C6 | B,6 |] %19
V:3
 B,2 B,2 E2 | D4 _D2 | C4 A,2 | G,6 || G,2 B,2 A,2 | G,4 G,2 | A,4 C2 | B,6 || %8
[M:3/4]"^1 Sun of my soul, Thou Saviour dear,\nit is not night if Thou be near;\nO, may no earth-born cloud arise,\nto hide Thee from Thy servant's eyes.\n\n2 When the soft dews of kindly sleep\nmy weary eyelids gently steep,\nbe my last thought-- how sweet to rest\nforever on my Saviour's breast!\n\n3 Abide with me from morn till eve,\nfor without Thee I cannot live;\nabide with me when night is nigh,\nfor without Thee I dare not die." B,2 C2 B,2 | %9
 A,4 C2 | (B,2 G,2) G,2 | A,4 || C2 | %13
 (C2 =B,2)"^4 If some poor wandering child of thine\nhave spurned to-day the voice divine,\nnow, Lord, the gracious work begin;\nlet him no more lie down in sin.\n\n5 Watch by the sick; enrich the poor\nwith blessings from thy boundless store;\nbe every mourner's sleep to-night,\nlike infant's slumbers, pure and light.\n\n6 Come near and bless us when we wake,\nere through the world our way we take,\ntill in the ocean of thy love\nwe lose ourselves in heaven above." D2 | %14
 (G,2 A,2) =A,2 | (B,2 G,2) A,2 | G,6 || A,6 | [E,G,]6 |] %19
V:4
 E,2 E,2 E,2 | E,4 E,2 | A,,4 C,2 | E,6 || E,2 B,,2 B,,2 | C,4 B,,2 | A,,4 A,,2 | B,,6 || %8
[M:3/4] G,,2 C,2 C,2 | F,4 F,2 | (B,,2 E,2) E,2 | A,,4 || A,2 | F,2 G,2 =B,,2 | C,4 _C,2 | %15
 B,,4 B,,2 | E,6 || A,,6 | E,,6 |] %19

